X:25
T:Callan Rewnna
M:C|
K:D
de ec|1 A3 ec/d/|ec ce|cA FE|FE E>F|EF AA|fe e2|cB cA|BA A^G|
GE F2


*****************************


15000 2 1.5824084 

<stary
H:| gg gf/e/|Be eB/e/|dB Bc|GA FE|GB Ge|
A>B ce|df A>=c|1 d>e dB|AB/d/ e/d/B/A/|1 AG G2:|2 AG GB||


*****************************


15100 2 0.9849401 

<stare
essfred.
Z:id:hn-polka-77
M:2/4
L:1/8
K:Amix
G>A BD|GA BE|ED DG|AB/A/ Bc|BA BG|cA GE|A=B Be|dc B/A


*****************************


15200 2 0.73939484 

<startons:orves Tur Char Pane
Z:id:hn-polka-87
M:2/4
L:1/8
K:D
f>e dG|e2 c2|Bc/d/ cB|Ad B/c/B|
A2 AB/c/|d


*****************************


15300 2 0.9807831 

<start>
